2019/02/basketball-predictions/assets/penn-w.svg

<svg enable-background="new 0 0 134 78.8" viewBox="0 0 134 78.8" xmlns="http://www.w3.org/2000/svg"><g fill="#a83131"><path d="m33.5 28.7c.1 0 .1-.2 0-.2s-.1.2 0 .2z"/><path d="m73.7 21.4 7.6-10.7s-2.1-1.9-8.6-1.9h-29.1v7.8s7.7 0 7.7 6.3v29.5l14.4-19.5v-12.5h5.3c1 0 1.9.4 2.7 1z"/><path d="m85.3 13-9.2 11.5c2.9 13.7-9.1 11-9.1 11l-15.5 18.7s0 9.3-7.9 8.2v7.6h29.8v-7.7s-7.7.5-7.7-5.8v-13h7.7s21.2-.3 16.5-22.4c-.1 0-2.1-6.8-4.6-8.1z"/></g></svg>

<?xml version="1.0" encoding="utf-8"?>
<!-- Generator: Adobe Illustrator 22.1.0, SVG Export Plug-In . SVG Version: 6.00 Build 0)  -->
<svg version="1.1" id="Layer_1" xmlns="http://www.w3.org/2000/svg" xmlns:xlink="http://www.w3.org/1999/xlink" x="0px" y="0px"
	 viewBox="0 0 134 78.8" style="enable-background:new 0 0 134 78.8;" xml:space="preserve">
<style type="text/css">
	.st0{fill:#A83131;}
</style>
<g id="Layer_1-2">
	<path class="st0" d="M33.5,28.7c0.1,0,0.1-0.2,0-0.2S33.4,28.7,33.5,28.7z"/>
	<path class="st0" d="M73.7,21.4l7.6-10.7c0,0-2.1-1.9-8.6-1.9H43.6v7.8c0,0,7.7,0,7.7,6.3v29.5l14.4-19.5V20.4H71
		C72,20.4,72.9,20.8,73.7,21.4z"/>
	<path class="st0" d="M85.3,13l-9.2,11.5c2.9,13.7-9.1,11-9.1,11L51.5,54.2c0,0,0,9.3-7.9,8.2V70h29.8v-7.7c0,0-7.7,0.5-7.7-5.8v-13
		h7.7c0,0,21.2-0.3,16.5-22.4C89.8,21.1,87.8,14.3,85.3,13z"/>
</g>
</svg>
